X: 20852
M: 6/8
L: 1/8
K: C
g |\
gec ceg | gfe f2a | gec ceg | {a}gfe d2d/e/ |\
f>gf f>gf | G>AG Hg2g/f/ | {f}e>dc e<gG | GAB c2 |]


